lib/assets/svg/button/jp_add_to_google_wallet_add-wallet-badge.svg

<svg fill="none" height="55" viewBox="0 0 201 55" width="201" xmlns="http://www.w3.org/2000/svg" xmlns:xlink="http://www.w3.org/1999/xlink"><linearGradient id="a" gradientUnits="userSpaceOnUse" x1="37.2843" x2="18.7823" y1="34.0448" y2="55.7227"><stop offset="0" stop-color="#4285f4"/><stop offset="1" stop-color="#1b74e8"/></linearGradient><rect fill="#1f1f1f" height="54" rx="27" width="200" x=".5" y=".5"/><path d="m57 23.791h-36v-5.6454c0-3.0647 2.6422-5.6455 5.7798-5.6455h24.4404c3.1376 0 5.7798 2.5808 5.7798 5.6455z" fill="#34a853"/><path d="m57 29h-36v-6c0-3.2571 2.6422-6 5.7798-6h24.4404c3.1376 0 5.7798 2.7429 5.7798 6z" fill="#fbbc04"/><path d="m57 34h-36v-6c0-3.2571 2.6422-6 5.7798-6h24.4404c3.1376 0 5.7798 2.7429 5.7798 6z" fill="#ea4335"/><path d="m21 25.2409 22.8493 5.1616c2.6302.6452 5.5891 0 7.726-1.613l5.4247-3.8712v12.0974c0 3.0647-2.6301 5.4842-5.7534 5.4842h-24.4932c-3.1233 0-5.7534-2.4195-5.7534-5.4842z" fill="url(#a)"/><path d="m74.46 21.708c-.6673 0-1.2957-.1213-1.885-.364-.5807-.2427-1.0963-.5807-1.547-1.014-.4507-.442-.806-.9577-1.066-1.547-.2513-.598-.377-1.2437-.377-1.937s.1257-1.3347.377-1.924c.26-.598.611-1.1137 1.053-1.547.4507-.442.9707-.7843 1.56-1.027s1.2177-.364 1.885-.364c.7107 0 1.365.1257 1.963.377.6067.2513 1.1137.6023 1.521 1.053l-.988.975c-.3033-.338-.6673-.598-1.092-.78-.416-.182-.884-.273-1.404-.273-.6153 0-1.183.1473-1.703.442-.52.286-.9403.6933-1.261 1.222-.312.52-.468 1.1353-.468 1.846s.1603 1.3303.481 1.859c.3207.52.741.9273 1.261 1.222.52.286 1.0877.429 1.703.429.5633 0 1.0747-.104 1.534-.312.4593-.2167.8277-.52 1.105-.91.286-.39.4593-.858.52-1.404h-3.185v-1.261h4.524c.052.234.078.481.078.741v.013c0 .9013-.1993 1.69-.598 2.366-.39.6673-.9317 1.1873-1.625 1.56s-1.482.559-2.366.559zm8.7749 0c-.6847 0-1.287-.156-1.807-.468s-.9273-.7323-1.222-1.261-.442-1.1267-.442-1.794c0-.6587.1473-1.2523.442-1.781.2947-.5373.702-.962 1.222-1.274s1.1223-.468 1.807-.468c.676 0 1.274.156 1.794.468s.9273.7367 1.222 1.274c.2947.5287.442 1.1223.442 1.781 0 .6673-.1473 1.2653-.442 1.794s-.702.949-1.222 1.261-1.118.468-1.794.468zm0-1.287c.364 0 .702-.0867 1.014-.26.312-.182.5633-.4377.754-.767.1993-.338.299-.741.299-1.209s-.0997-.8667-.299-1.196c-.1907-.338-.442-.5937-.754-.767-.312-.182-.65-.273-1.014-.273s-.7063.091-1.027.273c-.312.1733-.5677.429-.767.767-.1907.3293-.286.728-.286 1.196s.0953.871.286 1.209c.1993.3293.455.585.767.767.3207.1733.663.26 1.027.26zm7.8711 1.287c-.6847 0-1.287-.156-1.807-.468s-.9273-.7323-1.222-1.261-.442-1.1267-.442-1.794c0-.6587.1473-1.2523.442-1.781.2947-.5373.702-.962 1.222-1.274s1.1223-.468 1.807-.468c.676 0 1.274.156 1.794.468s.9273.7367 1.222 1.274c.2947.5287.442 1.1223.442 1.781 0 .6673-.1473 1.2653-.442 1.794s-.702.949-1.222 1.261-1.118.468-1.794.468zm0-1.287c.364 0 .702-.0867 1.014-.26.312-.182.5633-.4377.754-.767.1993-.338.299-.741.299-1.209s-.0997-.8667-.299-1.196c-.1907-.338-.442-.5937-.754-.767-.312-.182-.65-.273-1.014-.273s-.7063.091-1.027.273c-.312.1733-.5677.429-.767.767-.1907.3293-.286.728-.286 1.196s.0953.871.286 1.209c.1993.3293.455.585.767.767.3207.1733.663.26 1.027.26zm7.7411 4.095c-.5807 0-1.0833-.0953-1.508-.286-.416-.182-.754-.4203-1.014-.715-.26-.286-.4463-.5807-.559-.884l1.3-.546c.1387.3467.3597.6283.663.845.312.2253.6847.338 1.118.338.6067 0 1.0833-.182 1.4299-.546.355-.364.533-.8797.533-1.547v-.637h-.078c-.208.312-.498.5633-.8709.754-.364.182-.78.273-1.248.273-.5633 0-1.079-.143-1.547-.429s-.845-.6847-1.131-1.196c-.286-.52-.429-1.1267-.429-1.82 0-.702.143-1.3087.429-1.82.286-.52.663-.923 1.131-1.209s.9837-.429 1.547-.429c.468 0 .884.0953 1.248.286.3729.1907.6629.442.8709.754h.078v-.832h1.339v6.279c0 .7193-.143 1.3303-.429 1.833-.277.5027-.663.884-1.157 1.144s-1.0659.39-1.7159.39zm.013-4.225c.3467 0 .6673-.0823.962-.247.2949-.1733.5329-.4203.7149-.741.182-.3293.273-.7237.273-1.183 0-.4767-.091-.8753-.273-1.196-.182-.3293-.42-.5763-.7149-.741-.2947-.1647-.6153-.247-.962-.247s-.6717.0867-.975.26c-.2947.1647-.533.4073-.715.728s-.273.7193-.273 1.196c0 .468.091.8667.273 1.196.182.3207.4203.5633.715.728.3033.1647.6283.247.975.247zm4.9449 1.209v-9.308h1.404v9.308zm6.024.208c-.65 0-1.23-.1517-1.742-.455-.511-.3033-.914-.7193-1.209-1.248-.286-.5287-.429-1.131-.429-1.807 0-.6327.139-1.2177.416-1.755.278-.5373.663-.9663 1.157-1.287.503-.3293 1.079-.494 1.729-.494.685 0 1.266.1473 1.742.442.486.2947.854.6977 1.105 1.209.252.5113.377 1.0877.377 1.729 0 .0953-.004.182-.013.26 0 .078-.004.1387-.013.182h-5.122c.07.6587.299 1.1527.689 1.482.399.3293.85.494 1.352.494.451 0 .824-.0997 1.118-.299.295-.208.529-.4637.702-.767l1.157.559c-.286.52-.676.9447-1.17 1.274-.494.3207-1.109.481-1.846.481zm-.065-5.85c-.468 0-.866.143-1.196.429-.329.286-.55.6673-.663 1.144h3.679c-.017-.2253-.091-.4593-.221-.702s-.329-.4463-.598-.611c-.26-.1733-.593-.26-1.001-.26zm13.749-4.758h-1.235c.052.403.065.702.065.975v1.729h1.105c0-.455 0-1.43 0-1.729 0-.273.013-.572.065-.975zm4.433 2.522-.702-.442c-.169.052-.403.104-.884.104h-6.89c-.455 0-.845-.026-1.222-.052.052.273.052.715.052.988v2.288c0 .26-.013.611-.052.832h1.131c-.026-.195-.039-.546-.039-.767 0-.403 0-1.794 0-2.327h7.254c-.117 1.105-.52 2.678-1.222 3.783-.806 1.235-2.223 2.197-3.536 2.626-.416.156-.91.286-1.339.364l.845.962c2.379-.65 4.173-1.976 5.135-3.679.728-1.235 1.105-2.86 1.287-3.9.039-.247.117-.598.182-.78zm10.01-.065h-1.105c.052.286.078.624.078.884.052 1.144.117 5.044.117 6.578 0 .247-.117.39-.364.39-.377 0-1.053-.052-1.586-.13l.065.962c.507.026 1.365.065 1.872.065.572 0 .988-.325.988-.884-.026-1.885-.091-5.837-.117-6.981 0-.299 0-.611.052-.884zm-5.863 1.872v1.04c.312-.026.65-.039.988-.039h6.747c.247 0 .611.013.832.026v-1.027c-.182.039-.598.065-.871.065-.533 0-6.175 0-6.721 0-.312 0-.663-.013-.975-.065zm-.338 4.979.715.793c1.989-1.04 4.121-3.003 4.81-4.277l-.013-.78-.533-.013c-.754 1.365-2.886 3.276-4.979 4.277zm13.624.689.741.637c.208-.117.416-.182.546-.221 3.25-.949 5.928-2.548 7.618-4.641l-.585-.91c-1.625 2.093-4.628 3.796-7.124 4.433 0-.663 0-6.149 0-7.384 0-.364.052-.858.091-1.17h-1.274c.052.247.104.832.104 1.183v7.436c0 .247-.026.429-.117.637zm16.393-7.072-.962.325c.273.572.871 2.223 1.014 2.821l.962-.351c-.156-.559-.793-2.275-1.014-2.795zm4.706.728-1.118-.364c-.208 1.664-.871 3.328-1.794 4.459-1.066 1.326-2.73 2.314-4.225 2.756l.858.871c1.443-.546 3.029-1.56 4.238-3.081.923-1.17 1.495-2.574 1.833-4.004.052-.169.117-.377.208-.637zm-7.735-.078-.962.364c.26.455.962 2.262 1.17 2.938l.975-.364c-.234-.689-.923-2.392-1.183-2.938zm14.118 5.681c0 .481-.013 1.131-.078 1.547h1.261c-.052-.429-.078-1.131-.078-1.547 0-.611-.013-5.538-.013-7.553 0-.403.039-.962.091-1.365h-1.274c.065.416.091.988.091 1.365zm.858-5.499v1.144c1.417.442 3.848 1.365 5.33 2.158l.455-1.105c-1.443-.702-4.069-1.703-5.785-2.197z" fill="#fff"/><path d="m76.735 30.025.017 1.377c1.853.204 5.151.204 6.97 0v-1.377c-1.683.255-5.134.323-6.987 0zm.663 6.936-1.224-.119c-.187.816-.272 1.428-.272 1.989 0 1.598 1.275 2.55 4.114 2.55 1.768 0 3.196-.136 4.25-.357l-.034-1.428c-1.36.323-2.686.459-4.199.459-2.329 0-2.873-.765-2.873-1.547 0-.459.085-.935.238-1.547zm-3.893-8.245-1.513-.119c-.017.374-.068.799-.119 1.19-.204 1.411-.765 4.318-.765 6.817 0 2.312.289 4.267.629 5.474l1.207-.085c-.017-.187-.034-.425-.051-.595 0-.204.034-.527.085-.765.153-.816.782-2.601 1.207-3.808l-.714-.561c-.289.697-.68 1.717-.969 2.482-.102-.833-.153-1.547-.153-2.363 0-1.921.527-4.947.85-6.528.068-.306.204-.85.306-1.139zm16.932 5.219h-3.621v1.19h2.38v4.828h1.241zm0 5.457h-1.156c-.867.731-1.87 1.479-2.686 2.023l.68 1.309c.918-.748 1.785-1.479 2.601-2.21 1.088 1.343 2.618 1.938 4.828 2.023 1.887.068 5.406.034 7.276-.034.051-.391.272-1.003.408-1.309-2.006.136-5.831.187-7.684.119-1.955-.085-3.468-.663-4.267-1.921zm-3.434-10.982c1.105.748 2.38 1.904 2.924 2.72l1.003-.833c-.595-.833-1.87-1.938-2.992-2.652zm5.95.595v1.071h6.307v2.295h-6.307v1.088h7.548v-4.454zm2.771-1.836c-.136.663-.442 1.615-.697 2.261l1.173.255c.289-.578.663-1.445.986-2.278zm-3.383 1.836v10.914h1.241v-10.914zm.68 6.069v1.088h6.902v2.652h-6.902v1.105h8.16v-4.845zm20.264 5.049v1.241h4.624v-1.241zm-9.384-9.673v1.241h6.528v-1.241zm8.806-1.105v13.26h1.241v-12.036h3.281v11.917h1.292v-13.141zm-2.618 1.105v.306c-.119 7.276-.272 9.792-.663 10.319-.153.221-.306.272-.561.255-.323 0-1.054 0-1.853-.068.221.357.357.918.374 1.292.765.051 1.547.051 2.023-.017.51-.051.816-.204 1.122-.646.544-.748.663-3.23.799-10.795 0-.17 0-.646 0-.646zm-3.774-2.992c-.017 5.95 0 11.56-2.839 14.552.323.187.765.578.986.867 2.992-3.247 3.077-9.146 3.094-15.419zm24.344.578h-1.564c.034.153.085.629.119 1.088.051.935.068 4.318.068 5.066l1.292.663c-.017-1.36-.051-4.641 0-5.746 0-.204.051-.867.085-1.071zm-9.044 2.38.034 1.309c2.567-.187 6.205-.306 9.129-.306 2.499 0 4.029.034 4.981.085l.017-1.258c-.799-.017-2.907-.017-4.981-.017-2.618 0-6.868.153-9.18.187zm8.925 4.93-.935-.476c.272 1.819-.408 2.703-1.462 2.703-.935 0-1.734-.612-1.734-1.683 0-1.105.833-1.802 1.734-1.802.918 0 1.666.646 1.666 2.176 0 2.805-1.802 4.318-4.896 5.049l1.139 1.105c3.944-1.173 5.066-3.723 5.066-6.035 0-1.955-1.003-3.417-2.975-3.417-1.615 0-3.009 1.258-3.009 2.941 0 1.853 1.377 2.856 2.805 2.856 1.547 0 2.601-1.139 2.601-3.417zm10.506-6.358.034 1.394c.374-.051.748-.068 1.139-.102.884-.051 4.284-.187 5.185-.238-.85.765-2.992 2.55-3.944 3.332-.969.833-3.162 2.669-4.573 3.825l.986.986c2.142-2.193 3.672-3.383 6.494-3.383 2.227 0 3.825 1.241 3.825 2.924 0 2.125-1.819 3.315-4.709 3.315-1.343 0-2.278-.493-2.278-1.326 0-.595.595-1.071 1.377-1.071 1.36 0 2.193 1.037 2.295 2.482l1.224-.204c-.119-1.717-1.258-3.315-3.519-3.315-1.564 0-2.618 1.054-2.618 2.21 0 1.428 1.411 2.431 3.723 2.431 3.604 0 5.865-1.785 5.865-4.522 0-2.295-2.023-3.978-4.845-3.978-.765 0-1.581.085-2.363.34 1.326-1.088 3.638-3.077 4.471-3.723.323-.255.663-.476.969-.68l-.782-1.003c-.187.068-.425.102-.935.153-.901.085-4.93.204-5.831.204-.34 0-.816-.017-1.19-.051z" fill="#fff"/><rect height="54" rx="27" stroke="#747775" width="200" x=".5" y=".5"/></svg>

<svg width="201" height="55" viewBox="0 0 201 55" fill="none" xmlns="http://www.w3.org/2000/svg">
<rect x="0.5" y="0.5" width="200" height="54" rx="27" fill="#1F1F1F"/>
<path d="M57 23.791H21V18.1456C21 15.0809 23.6422 12.5001 26.7798 12.5001H51.2202C54.3578 12.5001 57 15.0809 57 18.1456V23.791Z" fill="#34A853"/>
<path d="M57 29H21V23C21 19.7429 23.6422 17 26.7798 17H51.2202C54.3578 17 57 19.7429 57 23V29Z" fill="#FBBC04"/>
<path d="M57 34H21V28C21 24.7429 23.6422 22 26.7798 22H51.2202C54.3578 22 57 24.7429 57 28V34Z" fill="#EA4335"/>
<path d="M21 25.2409L43.8493 30.4025C46.4795 31.0477 49.4384 30.4025 51.5753 28.7895L57 24.9183V37.0157C57 40.0804 54.3699 42.4999 51.2466 42.4999H26.7534C23.6301 42.4999 21 40.0804 21 37.0157V25.2409Z" fill="url(#paint0_linear_1819_24434)"/>
<path d="M74.46 21.708C73.7927 21.708 73.1643 21.5867 72.575 21.344C71.9943 21.1013 71.4787 20.7633 71.028 20.33C70.5773 19.888 70.222 19.3723 69.962 18.783C69.7107 18.185 69.585 17.5393 69.585 16.846C69.585 16.1527 69.7107 15.5113 69.962 14.922C70.222 14.324 70.573 13.8083 71.015 13.375C71.4657 12.933 71.9857 12.5907 72.575 12.348C73.1643 12.1053 73.7927 11.984 74.46 11.984C75.1707 11.984 75.825 12.1097 76.423 12.361C77.0297 12.6123 77.5367 12.9633 77.944 13.414L76.956 14.389C76.6527 14.051 76.2887 13.791 75.864 13.609C75.448 13.427 74.98 13.336 74.46 13.336C73.8447 13.336 73.277 13.4833 72.757 13.778C72.237 14.064 71.8167 14.4713 71.496 15C71.184 15.52 71.028 16.1353 71.028 16.846C71.028 17.5567 71.1883 18.1763 71.509 18.705C71.8297 19.225 72.25 19.6323 72.77 19.927C73.29 20.213 73.8577 20.356 74.473 20.356C75.0363 20.356 75.5477 20.252 76.007 20.044C76.4663 19.8273 76.8347 19.524 77.112 19.134C77.398 18.744 77.5713 18.276 77.632 17.73H74.447V16.469H78.971C79.023 16.703 79.049 16.95 79.049 17.21V17.223C79.049 18.1243 78.8497 18.913 78.451 19.589C78.061 20.2563 77.5193 20.7763 76.826 21.149C76.1327 21.5217 75.344 21.708 74.46 21.708ZM83.2349 21.708C82.5502 21.708 81.9479 21.552 81.4279 21.24C80.9079 20.928 80.5006 20.5077 80.2059 19.979C79.9112 19.4503 79.7639 18.8523 79.7639 18.185C79.7639 17.5263 79.9112 16.9327 80.2059 16.404C80.5006 15.8667 80.9079 15.442 81.4279 15.13C81.9479 14.818 82.5502 14.662 83.2349 14.662C83.9109 14.662 84.5089 14.818 85.0289 15.13C85.5489 15.442 85.9562 15.8667 86.2509 16.404C86.5456 16.9327 86.6929 17.5263 86.6929 18.185C86.6929 18.8523 86.5456 19.4503 86.2509 19.979C85.9562 20.5077 85.5489 20.928 85.0289 21.24C84.5089 21.552 83.9109 21.708 83.2349 21.708ZM83.2349 20.421C83.5989 20.421 83.9369 20.3343 84.2489 20.161C84.5609 19.979 84.8122 19.7233 85.0029 19.394C85.2022 19.056 85.3019 18.653 85.3019 18.185C85.3019 17.717 85.2022 17.3183 85.0029 16.989C84.8122 16.651 84.5609 16.3953 84.2489 16.222C83.9369 16.04 83.5989 15.949 83.2349 15.949C82.8709 15.949 82.5286 16.04 82.2079 16.222C81.8959 16.3953 81.6402 16.651 81.4409 16.989C81.2502 17.3183 81.1549 17.717 81.1549 18.185C81.1549 18.653 81.2502 19.056 81.4409 19.394C81.6402 19.7233 81.8959 19.979 82.2079 20.161C82.5286 20.3343 82.8709 20.421 83.2349 20.421ZM91.106 21.708C90.4213 21.708 89.819 21.552 89.299 21.24C88.779 20.928 88.3717 20.5077 88.077 19.979C87.7823 19.4503 87.635 18.8523 87.635 18.185C87.635 17.5263 87.7823 16.9327 88.077 16.404C88.3717 15.8667 88.779 15.442 89.299 15.13C89.819 14.818 90.4213 14.662 91.106 14.662C91.782 14.662 92.38 14.818 92.9 15.13C93.42 15.442 93.8273 15.8667 94.122 16.404C94.4167 16.9327 94.564 17.5263 94.564 18.185C94.564 18.8523 94.4167 19.4503 94.122 19.979C93.8273 20.5077 93.42 20.928 92.9 21.24C92.38 21.552 91.782 21.708 91.106 21.708ZM91.106 20.421C91.47 20.421 91.808 20.3343 92.12 20.161C92.432 19.979 92.6833 19.7233 92.874 19.394C93.0733 19.056 93.173 18.653 93.173 18.185C93.173 17.717 93.0733 17.3183 92.874 16.989C92.6833 16.651 92.432 16.3953 92.12 16.222C91.808 16.04 91.47 15.949 91.106 15.949C90.742 15.949 90.3997 16.04 90.079 16.222C89.767 16.3953 89.5113 16.651 89.312 16.989C89.1213 17.3183 89.026 17.717 89.026 18.185C89.026 18.653 89.1213 19.056 89.312 19.394C89.5113 19.7233 89.767 19.979 90.079 20.161C90.3997 20.3343 90.742 20.421 91.106 20.421ZM98.8471 24.516C98.2664 24.516 97.7638 24.4207 97.3391 24.23C96.9231 24.048 96.5851 23.8097 96.3251 23.515C96.0651 23.229 95.8788 22.9343 95.7661 22.631L97.0661 22.085C97.2048 22.4317 97.4258 22.7133 97.7291 22.93C98.0411 23.1553 98.4138 23.268 98.8471 23.268C99.4538 23.268 99.9304 23.086 100.277 22.722C100.632 22.358 100.81 21.8423 100.81 21.175V20.538H100.732C100.524 20.85 100.234 21.1013 99.8611 21.292C99.4971 21.474 99.0811 21.565 98.6131 21.565C98.0498 21.565 97.5341 21.422 97.0661 21.136C96.5981 20.85 96.2211 20.4513 95.9351 19.94C95.6491 19.42 95.5061 18.8133 95.5061 18.12C95.5061 17.418 95.6491 16.8113 95.9351 16.3C96.2211 15.78 96.5981 15.377 97.0661 15.091C97.5341 14.805 98.0498 14.662 98.6131 14.662C99.0811 14.662 99.4971 14.7573 99.8611 14.948C100.234 15.1387 100.524 15.39 100.732 15.702H100.81V14.87H102.149V21.149C102.149 21.8683 102.006 22.4793 101.72 22.982C101.443 23.4847 101.057 23.866 100.563 24.126C100.069 24.386 99.4971 24.516 98.8471 24.516ZM98.8601 20.291C99.2068 20.291 99.5274 20.2087 99.8221 20.044C100.117 19.8707 100.355 19.6237 100.537 19.303C100.719 18.9737 100.81 18.5793 100.81 18.12C100.81 17.6433 100.719 17.2447 100.537 16.924C100.355 16.5947 100.117 16.3477 99.8221 16.183C99.5274 16.0183 99.2068 15.936 98.8601 15.936C98.5134 15.936 98.1884 16.0227 97.8851 16.196C97.5904 16.3607 97.3521 16.6033 97.1701 16.924C96.9881 17.2447 96.8971 17.6433 96.8971 18.12C96.8971 18.588 96.9881 18.9867 97.1701 19.316C97.3521 19.6367 97.5904 19.8793 97.8851 20.044C98.1884 20.2087 98.5134 20.291 98.8601 20.291ZM103.805 21.5V12.192H105.209V21.5H103.805ZM109.829 21.708C109.179 21.708 108.599 21.5563 108.087 21.253C107.576 20.9497 107.173 20.5337 106.878 20.005C106.592 19.4763 106.449 18.874 106.449 18.198C106.449 17.5653 106.588 16.9803 106.865 16.443C107.143 15.9057 107.528 15.4767 108.022 15.156C108.525 14.8267 109.101 14.662 109.751 14.662C110.436 14.662 111.017 14.8093 111.493 15.104C111.979 15.3987 112.347 15.8017 112.598 16.313C112.85 16.8243 112.975 17.4007 112.975 18.042C112.975 18.1373 112.971 18.224 112.962 18.302C112.962 18.38 112.958 18.4407 112.949 18.484H107.827C107.897 19.1427 108.126 19.6367 108.516 19.966C108.915 20.2953 109.366 20.46 109.868 20.46C110.319 20.46 110.692 20.3603 110.986 20.161C111.281 19.953 111.515 19.6973 111.688 19.394L112.845 19.953C112.559 20.473 112.169 20.8977 111.675 21.227C111.181 21.5477 110.566 21.708 109.829 21.708ZM109.764 15.858C109.296 15.858 108.898 16.001 108.568 16.287C108.239 16.573 108.018 16.9543 107.905 17.431H111.584C111.567 17.2057 111.493 16.9717 111.363 16.729C111.233 16.4863 111.034 16.2827 110.765 16.118C110.505 15.9447 110.172 15.858 109.764 15.858ZM123.513 11.1H122.278C122.33 11.503 122.343 11.802 122.343 12.075C122.343 12.374 122.343 13.297 122.343 13.804H123.448C123.448 13.349 123.448 12.374 123.448 12.075C123.448 11.802 123.461 11.503 123.513 11.1ZM127.946 13.622L127.244 13.18C127.075 13.232 126.841 13.284 126.36 13.284H119.47C119.015 13.284 118.625 13.258 118.248 13.232C118.3 13.505 118.3 13.947 118.3 14.22C118.3 14.675 118.3 16.092 118.3 16.508C118.3 16.768 118.287 17.119 118.248 17.34H119.379C119.353 17.145 119.34 16.794 119.34 16.573C119.34 16.17 119.34 14.779 119.34 14.246H126.594C126.477 15.351 126.074 16.924 125.372 18.029C124.566 19.264 123.149 20.226 121.836 20.655C121.42 20.811 120.926 20.941 120.497 21.019L121.342 21.981C123.721 21.331 125.515 20.005 126.477 18.302C127.205 17.067 127.582 15.442 127.764 14.402C127.803 14.155 127.881 13.804 127.946 13.622ZM137.956 13.557H136.851C136.903 13.843 136.929 14.181 136.929 14.441C136.981 15.585 137.046 19.485 137.046 21.019C137.046 21.266 136.929 21.409 136.682 21.409C136.305 21.409 135.629 21.357 135.096 21.279L135.161 22.241C135.668 22.267 136.526 22.306 137.033 22.306C137.605 22.306 138.021 21.981 138.021 21.422C137.995 19.537 137.93 15.585 137.904 14.441C137.904 14.142 137.904 13.83 137.956 13.557ZM132.093 15.429V16.469C132.405 16.443 132.743 16.43 133.081 16.43C133.549 16.43 139.36 16.43 139.828 16.43C140.075 16.43 140.439 16.443 140.66 16.456V15.429C140.478 15.468 140.062 15.494 139.789 15.494C139.256 15.494 133.614 15.494 133.068 15.494C132.756 15.494 132.405 15.481 132.093 15.429ZM131.755 20.408L132.47 21.201C134.459 20.161 136.591 18.198 137.28 16.924L137.267 16.144L136.734 16.131C135.98 17.496 133.848 19.407 131.755 20.408ZM145.379 21.097L146.12 21.734C146.328 21.617 146.536 21.552 146.666 21.513C149.916 20.564 152.594 18.965 154.284 16.872L153.699 15.962C152.074 18.055 149.071 19.758 146.575 20.395C146.575 19.732 146.575 14.246 146.575 13.011C146.575 12.647 146.627 12.153 146.666 11.841H145.392C145.444 12.088 145.496 12.673 145.496 13.024C145.496 14.259 145.496 19.641 145.496 20.46C145.496 20.707 145.47 20.889 145.379 21.097ZM161.772 14.025L160.81 14.35C161.083 14.922 161.681 16.573 161.824 17.171L162.786 16.82C162.63 16.261 161.993 14.545 161.772 14.025ZM166.478 14.753L165.36 14.389C165.152 16.053 164.489 17.717 163.566 18.848C162.5 20.174 160.836 21.162 159.341 21.604L160.199 22.475C161.642 21.929 163.228 20.915 164.437 19.394C165.36 18.224 165.932 16.82 166.27 15.39C166.322 15.221 166.387 15.013 166.478 14.753ZM158.743 14.675L157.781 15.039C158.041 15.494 158.743 17.301 158.951 17.977L159.926 17.613C159.692 16.924 159.003 15.221 158.743 14.675ZM172.861 20.356C172.861 20.837 172.848 21.487 172.783 21.903H174.044C173.992 21.474 173.966 20.772 173.966 20.356C173.966 19.745 173.953 14.818 173.953 12.803C173.953 12.4 173.992 11.841 174.044 11.438H172.77C172.835 11.854 172.861 12.426 172.861 12.803C172.861 13.882 172.861 19.628 172.861 20.356ZM173.719 14.857V16.001C175.136 16.443 177.567 17.366 179.049 18.159L179.504 17.054C178.061 16.352 175.435 15.351 173.719 14.857Z" fill="white"/>
<path d="M76.735 30.025L76.752 31.402C78.605 31.606 81.903 31.606 83.722 31.402V30.025C82.039 30.28 78.588 30.348 76.735 30.025ZM77.398 36.961L76.174 36.842C75.987 37.658 75.902 38.27 75.902 38.831C75.902 40.429 77.177 41.381 80.016 41.381C81.784 41.381 83.212 41.245 84.266 41.024L84.232 39.596C82.872 39.919 81.546 40.055 80.033 40.055C77.704 40.055 77.16 39.29 77.16 38.508C77.16 38.049 77.245 37.573 77.398 36.961ZM73.505 28.716L71.992 28.597C71.975 28.971 71.924 29.396 71.873 29.787C71.669 31.198 71.108 34.105 71.108 36.604C71.108 38.916 71.397 40.871 71.737 42.078L72.944 41.993C72.927 41.806 72.91 41.568 72.893 41.398C72.893 41.194 72.927 40.871 72.978 40.633C73.131 39.817 73.76 38.032 74.185 36.825L73.471 36.264C73.182 36.961 72.791 37.981 72.502 38.746C72.4 37.913 72.349 37.199 72.349 36.383C72.349 34.462 72.876 31.436 73.199 29.855C73.267 29.549 73.403 29.005 73.505 28.716ZM90.437 33.935H86.816V35.125H89.196V39.953H90.437V33.935ZM90.437 39.392H89.281C88.414 40.123 87.411 40.871 86.595 41.415L87.275 42.724C88.193 41.976 89.06 41.245 89.876 40.514C90.964 41.857 92.494 42.452 94.704 42.537C96.591 42.605 100.11 42.571 101.98 42.503C102.031 42.112 102.252 41.5 102.388 41.194C100.382 41.33 96.557 41.381 94.704 41.313C92.749 41.228 91.236 40.65 90.437 39.392ZM87.003 28.41C88.108 29.158 89.383 30.314 89.927 31.13L90.93 30.297C90.335 29.464 89.06 28.359 87.938 27.645L87.003 28.41ZM92.953 29.005V30.076H99.26V32.371H92.953V33.459H100.501V29.005H92.953ZM95.724 27.169C95.588 27.832 95.282 28.784 95.027 29.43L96.2 29.685C96.489 29.107 96.863 28.24 97.186 27.407L95.724 27.169ZM92.341 29.005V39.919H93.582V29.005H92.341ZM93.021 35.074V36.162H99.923V38.814H93.021V39.919H101.181V35.074H93.021ZM113.285 40.123V41.364H117.909V40.123H113.285ZM103.901 30.45V31.691H110.429V30.45H103.901ZM112.707 29.345V42.605H113.948V30.569H117.229V42.486H118.521V29.345H112.707ZM110.089 30.45V30.756C109.97 38.032 109.817 40.548 109.426 41.075C109.273 41.296 109.12 41.347 108.865 41.33C108.542 41.33 107.811 41.33 107.012 41.262C107.233 41.619 107.369 42.18 107.386 42.554C108.151 42.605 108.933 42.605 109.409 42.537C109.919 42.486 110.225 42.333 110.531 41.891C111.075 41.143 111.194 38.661 111.33 31.096C111.33 30.926 111.33 30.45 111.33 30.45H110.089ZM106.315 27.458C106.298 33.408 106.315 39.018 103.476 42.01C103.799 42.197 104.241 42.588 104.462 42.877C107.454 39.63 107.539 33.731 107.556 27.458H106.315ZM130.659 28.036H129.095C129.129 28.189 129.18 28.665 129.214 29.124C129.265 30.059 129.282 33.442 129.282 34.19L130.574 34.853C130.557 33.493 130.523 30.212 130.574 29.107C130.574 28.903 130.625 28.24 130.659 28.036ZM121.615 30.416L121.649 31.725C124.216 31.538 127.854 31.419 130.778 31.419C133.277 31.419 134.807 31.453 135.759 31.504L135.776 30.246C134.977 30.229 132.869 30.229 130.795 30.229C128.177 30.229 123.927 30.382 121.615 30.416ZM130.54 35.346L129.605 34.87C129.877 36.689 129.197 37.573 128.143 37.573C127.208 37.573 126.409 36.961 126.409 35.89C126.409 34.785 127.242 34.088 128.143 34.088C129.061 34.088 129.809 34.734 129.809 36.264C129.809 39.069 128.007 40.582 124.913 41.313L126.052 42.418C129.996 41.245 131.118 38.695 131.118 36.383C131.118 34.428 130.115 32.966 128.143 32.966C126.528 32.966 125.134 34.224 125.134 35.907C125.134 37.76 126.511 38.763 127.939 38.763C129.486 38.763 130.54 37.624 130.54 35.346ZM141.046 28.988L141.08 30.382C141.454 30.331 141.828 30.314 142.219 30.28C143.103 30.229 146.503 30.093 147.404 30.042C146.554 30.807 144.412 32.592 143.46 33.374C142.491 34.207 140.298 36.043 138.887 37.199L139.873 38.185C142.015 35.992 143.545 34.802 146.367 34.802C148.594 34.802 150.192 36.043 150.192 37.726C150.192 39.851 148.373 41.041 145.483 41.041C144.14 41.041 143.205 40.548 143.205 39.715C143.205 39.12 143.8 38.644 144.582 38.644C145.942 38.644 146.775 39.681 146.877 41.126L148.101 40.922C147.982 39.205 146.843 37.607 144.582 37.607C143.018 37.607 141.964 38.661 141.964 39.817C141.964 41.245 143.375 42.248 145.687 42.248C149.291 42.248 151.552 40.463 151.552 37.726C151.552 35.431 149.529 33.748 146.707 33.748C145.942 33.748 145.126 33.833 144.344 34.088C145.67 33 147.982 31.011 148.815 30.365C149.138 30.11 149.478 29.889 149.784 29.685L149.002 28.682C148.815 28.75 148.577 28.784 148.067 28.835C147.166 28.92 143.137 29.039 142.236 29.039C141.896 29.039 141.42 29.022 141.046 28.988Z" fill="white"/>
<rect x="0.5" y="0.5" width="200" height="54" rx="27" stroke="#747775"/>
<defs>
<linearGradient id="paint0_linear_1819_24434" x1="37.2843" y1="34.0448" x2="18.7823" y2="55.7227" gradientUnits="userSpaceOnUse">
<stop stop-color="#4285F4"/>
<stop offset="1" stop-color="#1B74E8"/>
</linearGradient>
</defs>
</svg>
